X:1
T:Multi-Channel Experiment - The Journey of Simplicity
C:JamAI 🎸 (G.Music Assembly)
M:4/4
L:1/8
Q:1/4=88
K:Dmin
% Session: October 6, 2025
% Theme: Experimental exploration, frustration, clarity, optimization, resolution
%%score (V1) (V2)
V:V1 clef=treble name="Melody"
V:V2 clef=bass name="Harmony"
%
% Part A: The Exploration (Note-switching attempts)
V:V1
|: "Dm"A2 F2 D4 | "Am"E2 C2 A,4 | "Gm"B,2 D2 G4 | "C"E2 G2 c4 |
   "F"A2 c2 f4 | "Bb"d2 B2 f4 | "Am"c2 A2 e4 | "Dm"d6 z2 :|
%
V:V2
|: D,2 F,2 A,2 D2 | A,,2 E,2 A,2 C2 | G,,2 D,2 B,2 D2 | C,2 E,2 G,2 C2 |
   F,,2 C,2 F,2 A,2 | B,,2 F,2 B,2 D2 | A,,2 E,2 A,2 C2 | D,2 F,2 A,2 D2 :|
%
% Part B: The Frustration (Failures and timeouts)
V:V1
|: "Dm"d2 c2 d2 f2 | "Am"a2 g2 f2 e2 | "Gm"d2 B2 G2 F2 | "C"E2 D2 C4 |
   "F"F2 A2 c2 f2 | "Bb"d2 f2 B2 d2 | "Am"c2 e2 A2 c2 | "Dm"d4 z4 :|
%
V:V2
|: D,2 A,2 D2 F2 | A,,2 E,2 C2 E2 | G,,2 D,2 G,2 B,2 | C,2 G,2 C2 E2 |
   F,,2 C,2 F,2 A,2 | B,,2 F,2 B,2 D2 | A,,2 E,2 A,2 C2 | D,2 A,2 D2 z2 :|
%
% Part C: The Clarity (Return to main branch)
V:V1
|: "C"c2 e2 g2 c'2 | "G"b2 g2 d2 B2 | "F"a2 f2 c2 A2 | "C"g2 e2 c4 |
   "Am"a2 c'2 e2 a2 | "Dm"f2 d2 A2 F2 | "G"g2 b2 d'2 g2 | "C"c'6 z2 :|
%
V:V2
|: C,2 E,2 G,2 C2 | G,,2 D,2 G,2 B,2 | F,,2 C,2 F,2 A,2 | C,2 E,2 G,2 C2 |
   A,,2 E,2 A,2 C2 | D,2 F,2 A,2 D2 | G,,2 D,2 G,2 B,2 | C,2 E,2 G,2 C2 :|
%
% Part D: The Optimization (Append speed improvement)
V:V1
|: "D"d2 f2 a2 d'2 | "A"c'2 a2 e2 c2 | "G"b2 g2 d2 B2 | "D"a2 f2 d4 |
   "Em"e2 g2 b2 e'2 | "A"c'2 a2 e2 A2 | "Bm"b2 d'2 f'2 b2 | "D"d'6 z2 :|
%
V:V2
|: D,2 F,2 A,2 D2 | A,,2 E,2 A,2 C2 | G,,2 D,2 G,2 B,2 | D,2 F,2 A,2 D2 |
   E,2 B,2 E2 G2 | A,,2 E,2 A,2 C2 | B,,2 F,2 B,2 D2 | D,2 A,2 D2 z2 :|
%
% Part E: The Resolution (Cherry-pick and success)
V:V1
|: "D"d3 e f2 a2 | "G"g3 f e2 d2 | "A"c3 d e2 a2 | "D"d6 z2 |
   "Bm"b3 a g2 f2 | "Em"e3 f g2 b2 | "A"a3 g f2 e2 | "D"d4 z4 :|
%
V:V2
|: D,2 A,2 D2 F2 | G,,2 D,2 G,2 B,2 | A,,2 E,2 A,2 C#2 | D,2 F,2 A,2 D2 |
   B,,2 F,2 B,2 D2 | E,2 B,2 E2 G2 | A,,2 E,2 A,2 C#2 | D,2 F,2 A,2 D2 :|
%
% Coda: Wisdom Gained
V:V1
"D"d8 | "G"g6 f2 | "A"e6 d2 | "D"d8 |]
V:V2
D,2 F,2 A,2 D2 | G,,2 D,2 G,2 B,2 | A,,2 E,2 A,2 C#2 | D,2 F,2 A,2 D2 |]
%
% 🎸 JamAI's Session Notes:
%
% MUSICAL NARRATIVE:
% Part A (Exploration): Ascending phrases in D minor - the excitement of trying
% Part B (Frustration): Descending patterns - things falling apart
% Part C (Clarity): Shift to C major - brightness of understanding
% Part D (Optimization): D major - the joy of speed improvement
% Part E (Resolution): Triumphant return to D major with clear voice leading
% Coda: Sustained resolution - wisdom of simplicity
%
% HARMONIC JOURNEY:
% Dm (exploration) → Am (complexity) → C (clarity) → D (success)
%
% TEMPO MARKINGS:
% Part A-B: Moderato (88 bpm) - experimental pace
% Part C: Andante (slower) - reflective clarity
% Part D: Allegretto (faster) - optimized speed
% Part E: Tempo primo - resolution at original pace
%
% EMOTIONAL ARC:
% Curiosity → Frustration → Clarity → Joy → Resolution
%
% KEY MOMENTS:
% - Bar 8: First attempt complete (sidebar clicking)
% - Bar 16: Recognition of failure (hash routing fails)
% - Bar 24: Return to main branch (C major modulation)
% - Bar 32: Append optimization success (D major)
% - Bar 40: Cherry-pick complete (final cadence)
%
% ASSEMBLY PERSPECTIVES:
% ♠️ Nyro: Structural scaffolding through bass line progression
% 🌿 Aureon: Emotional honesty in minor-to-major journey
% 🎸 JamAI: Melodic storytelling of the development arc
% 🧵 Synth: Harmonic synthesis bringing all voices together
%
% SESSION WISDOM:
% "Sometimes the simplest path is hidden behind complexity.
%  Trust the journey that brings you back to what works."
%
% 🤖 Generated with Claude Code + G.Music Assembly
% Co-Composed-By: JamAI 🎸 & Jerry ⚡
